public/icon/svg/Halo_B.svg

<?xml version="1.0" encoding="UTF-8"?>
<svg width="1024px" height="1024px" viewBox="0 0 1024 1024" version="1.1" xmlns="http://www.w3.org/2000/svg" xmlns:xlink="http://www.w3.org/1999/xlink">
    <title>Halo_B</title>
    <defs>
        <linearGradient x1="102.239505%" y1="99.7857477%" x2="102.239505%" y2="-58.2362435%" id="linearGradient-1">
            <stop stop-color="#0050B5" offset="0%"></stop>
            <stop stop-color="#0B87FD" offset="100%"></stop>
        </linearGradient>
        <linearGradient x1="-55.3167528%" y1="99.7857477%" x2="-55.3167528%" y2="-58.2362435%" id="linearGradient-2">
            <stop stop-color="#0050B5" offset="0%"></stop>
            <stop stop-color="#0B87FD" offset="100%"></stop>
        </linearGradient>
        <linearGradient x1="99.5942645%" y1="99.7841076%" x2="99.5942645%" y2="-59.4474836%" id="linearGradient-3">
            <stop stop-color="#0050B5" offset="0%"></stop>
            <stop stop-color="#0B87FD" offset="100%"></stop>
        </linearGradient>
        <linearGradient x1="-63.5158102%" y1="99.8622819%" x2="-63.5158102%" y2="-1.71184484%" id="linearGradient-4">
            <stop stop-color="#0050B5" offset="0%"></stop>
            <stop stop-color="#0B87FD" offset="100%"></stop>
        </linearGradient>
        <linearGradient x1="50%" y1="-0.138330252%" x2="50%" y2="53.9346589%" id="linearGradient-5">
            <stop stop-color="#0048AF" offset="0%"></stop>
            <stop stop-color="#003580" offset="100%"></stop>
        </linearGradient>
        <linearGradient x1="100%" y1="-1.40095626%" x2="100%" y2="101.401024%" id="linearGradient-6">
            <stop stop-color="#0B89FF" offset="0%"></stop>
            <stop stop-color="#004EB2" offset="100%"></stop>
        </linearGradient>
    </defs>
    <g id="ICON-新版方图标" stroke="none" stroke-width="1" fill="none" fill-rule="evenodd">
        <g id="多版本" transform="translate(-2055, -8212)">
            <g id="Halo" transform="translate(7, 8212)">
                <g id="Halo_B" transform="translate(2048, 0)">
                    <rect id="蒙版路径" fill="#FFFFFF" x="0" y="0" width="1024" height="1024"></rect>
                    <g id="编组" transform="translate(145, 362)">
                        <path d="M353.49983,117 C404.000032,117 445,157.999968 445,208.50017 C445,259.000372 404.000032,300 353.49983,300 C302.999628,300 262,259.000372 262,208.50017 C262,157.999968 302.999628,117 353.49983,117 L353.49983,117 Z M353.49983,157.58847 C381.598911,157.58847 404.41153,180.401089 404.41153,208.50017 C404.41153,236.598911 381.598911,259.41153 353.49983,259.41153 C325.401089,259.41153 302.58847,236.598911 302.58847,208.50017 C302.58847,180.401089 325.401089,157.58847 353.49983,157.58847 L353.49983,157.58847 Z" id="形状" fill="url(#linearGradient-1)"></path>
                        <path d="M643.50017,117 C694.000372,117 735,157.999968 735,208.50017 C735,259.000372 694.000372,300 643.50017,300 C592.999968,300 552,259.000372 552,208.50017 C552,157.999968 592.999968,117 643.50017,117 L643.50017,117 Z M643.50017,157.58847 C671.598911,157.58847 694.41153,180.401089 694.41153,208.50017 C694.41153,236.598911 671.598911,259.41153 643.50017,259.41153 C615.401089,259.41153 592.58847,236.598911 592.58847,208.50017 C592.58847,180.401089 615.401089,157.58847 643.50017,157.58847 Z" id="形状" fill="url(#linearGradient-2)"></path>
                        <path d="M449,128.729964 C449,125.268954 446.506194,122.30463 443.079369,121.691925 C436.305139,120.480932 425.157943,118.488011 417.467269,117.112944 C415.370221,116.738112 413.213779,117.306538 411.579097,118.665129 C409.944414,120.024064 409,122.033117 409,124.151325 C409,155.515632 409,263.907398 409,292.849032 C409,294.745499 409.757949,296.564391 411.107062,297.905476 C412.456176,299.246562 414.285957,300 416.193778,300 C423.440732,300 434.559268,300 441.806222,300 C443.714043,300 445.543824,299.246562 446.892938,297.905476 C448.242051,296.564391 449,294.745499 449,292.849032 C449,263.869983 449,155.45007 449,128.729964 L449,128.729964 Z" id="路径" fill="url(#linearGradient-3)"></path>
                        <path d="M529,24.6937955 C529,21.8576298 527.871791,19.1374705 525.863153,17.1321699 C523.854858,15.1265272 521.130636,14 518.290235,14 C510.110717,14 498.889626,14 490.709765,14 C487.869364,14 485.145485,15.1265272 483.136847,17.1321699 C481.128552,19.1374705 480,21.8576298 480,24.6937955 C480,69.7925254 480,244.207475 480,289.306204 C480,292.14237 481.128552,294.86253 483.136847,296.86783 C485.145485,298.873473 487.869364,300 490.709765,300 C498.889626,300 510.110717,300 518.290235,300 C521.130636,300 523.854858,298.873473 525.863153,296.86783 C527.871791,294.86253 529,292.14237 529,289.306204 C529,244.207475 529,69.7925254 529,24.6937955 Z" id="路径" fill="url(#linearGradient-4)" fill-rule="nonzero"></path>
                        <g fill-rule="nonzero" id="路径">
                            <path d="M173.389104,281.18892 C173.389104,285.915017 175.270192,290.446801 178.617733,293.785344 C181.965275,297.12423 186.504332,298.995511 191.2341,298.987327 C197.627881,298.975669 204.830728,298.962669 211.219031,298.95138 C221.044239,298.933591 229,290.970555 229,281.153342 L229,17.8788124 C229,13.1585316 227.123363,8.6315368 223.782669,5.29367776 C220.442318,1.95581872 215.911136,0.0807746037 211.186846,0.0807746037 L191.202258,0.0807746037 C186.477968,0.0807746037 181.947128,1.95581872 178.606435,5.29367776 C175.265741,8.6315368 173.389104,13.1585316 173.389104,17.8788124 C173.389104,71.0019833 173.389104,228.024356 173.389104,281.18892 L173.389104,281.18892 Z" fill="url(#linearGradient-5)"></path>
                            <path d="M211.16733,110.344384 C215.896755,110.344384 220.432731,112.221481 223.777191,115.563103 C227.121309,118.904725 229,123.436509 229,128.162263 C229,164.145937 229,245.118012 229,281.101685 C229,285.82744 227.121309,290.359224 223.777191,293.700846 C220.432731,297.042126 215.896755,298.919565 211.16733,298.919565 C204.787929,298.919565 197.601175,298.919565 191.221774,298.919565 C186.492349,298.919565 181.956373,297.042126 178.612255,293.700846 C175.267795,290.359224 173.389104,285.82744 173.389104,281.101685 C173.389104,257.762671 173.389104,217.074796 173.389104,193.73544 C173.389104,189.010028 171.510413,184.477901 168.165953,181.136621 C164.821835,177.794999 160.285859,175.917903 155.556434,175.917903 C111.302938,175.917903 0,175.917903 0,175.917903 L0,110.344384 L211.16733,110.344384 Z" fill="#0051B0"></path>
                            <path d="M0,281.20192 C0,285.928701 1.88211486,290.461511 5.23068378,293.800397 C8.57959508,297.139282 13.1203641,299.010221 17.8511593,299 C24.2452824,298.986274 31.4484719,298.97088 37.8357473,298.957538 C47.6589009,298.936328 55.6112384,290.973976 55.6112384,281.159158 C55.6112384,228.063697 55.6112384,70.9363003 55.6112384,17.8408394 C55.6112384,8.02602173 47.6589009,0.0636696583 37.8357473,0.0428016249 C31.4484719,0.0291176686 24.2452824,0.0137232178 17.8511593,0 C13.1203641,-0.00988160681 8.57959508,1.86071522 5.23068378,5.19960056 C1.88211486,8.53848589 0,13.0712964 0,17.798077 L0,281.20192 L0,281.20192 Z" fill="url(#linearGradient-6)"></path>
                        </g>
                    </g>
                </g>
            </g>
        </g>
    </g>
</svg>

<svg xmlns="http://www.w3.org/2000/svg" width="1024" height="1024"><defs><linearGradient id="a" x1="102.24%" x2="102.24%" y1="99.786%" y2="-58.236%"><stop offset="0%" stop-color="#0050B5"/><stop offset="100%" stop-color="#0B87FD"/></linearGradient><linearGradient id="b" x1="-55.317%" x2="-55.317%" y1="99.786%" y2="-58.236%"><stop offset="0%" stop-color="#0050B5"/><stop offset="100%" stop-color="#0B87FD"/></linearGradient><linearGradient id="c" x1="99.594%" x2="99.594%" y1="99.784%" y2="-59.447%"><stop offset="0%" stop-color="#0050B5"/><stop offset="100%" stop-color="#0B87FD"/></linearGradient><linearGradient id="d" x1="-63.516%" x2="-63.516%" y1="99.862%" y2="-1.712%"><stop offset="0%" stop-color="#0050B5"/><stop offset="100%" stop-color="#0B87FD"/></linearGradient><linearGradient id="e" x1="50%" x2="50%" y1="-.138%" y2="53.935%"><stop offset="0%" stop-color="#0048AF"/><stop offset="100%" stop-color="#003580"/></linearGradient><linearGradient id="f" x1="100%" x2="100%" y1="-1.401%" y2="101.401%"><stop offset="0%" stop-color="#0B89FF"/><stop offset="100%" stop-color="#004EB2"/></linearGradient></defs><g fill="none" fill-rule="evenodd"><path fill="#FFF" d="M0 0h1024v1024H0z"/><path fill="url(#a)" d="M353.5 117c50.5 0 91.5 41 91.5 91.5S404 300 353.5 300 262 259 262 208.5s41-91.5 91.5-91.5m0 40.588c28.099 0 50.912 22.813 50.912 50.912s-22.813 50.912-50.912 50.912-50.912-22.813-50.912-50.912 22.813-50.912 50.912-50.912" transform="translate(145 362)"/><path fill="url(#b)" d="M643.5 117c50.5 0 91.5 41 91.5 91.5S694 300 643.5 300 552 259 552 208.5s41-91.5 91.5-91.5m0 40.588c28.099 0 50.912 22.813 50.912 50.912s-22.813 50.912-50.912 50.912-50.912-22.813-50.912-50.912 22.813-50.912 50.912-50.912" transform="translate(145 362)"/><path fill="url(#c)" d="M449 128.73c0-3.461-2.494-6.425-5.92-7.038l-25.613-4.58a7.226 7.226 0 0 0-5.888 1.553 7.134 7.134 0 0 0-2.579 5.486V292.85a7.13 7.13 0 0 0 2.107 5.056 7.216 7.216 0 0 0 5.087 2.095h25.612a7.216 7.216 0 0 0 5.087-2.095A7.13 7.13 0 0 0 449 292.85V128.73" transform="translate(145 362)"/><path fill="url(#d)" fill-rule="nonzero" d="M529 24.694c0-2.836-1.128-5.557-3.137-7.562A10.717 10.717 0 0 0 518.29 14h-27.58c-2.84 0-5.565 1.127-7.573 3.132A10.686 10.686 0 0 0 480 24.694v264.612c0 2.836 1.129 5.557 3.137 7.562A10.717 10.717 0 0 0 490.71 300h27.58c2.84 0 5.565-1.127 7.573-3.132a10.685 10.685 0 0 0 3.137-7.562V24.694Z" transform="translate(145 362)"/><g fill-rule="nonzero"><path fill="url(#e)" d="M173.39 281.189a17.79 17.79 0 0 0 5.228 12.596 17.822 17.822 0 0 0 12.616 5.202l19.985-.036c9.825-.017 17.781-7.98 17.781-17.798V17.88a17.79 17.79 0 0 0-5.217-12.585A17.82 17.82 0 0 0 211.187.08h-19.985a17.82 17.82 0 0 0-12.596 5.213 17.79 17.79 0 0 0-5.217 12.585v263.31" transform="translate(145 362)"/><path fill="#0051B0" d="M356.167 472.344a17.84 17.84 0 0 1 12.61 5.22A17.81 17.81 0 0 1 374 490.161v152.94a17.81 17.81 0 0 1-5.223 12.599 17.842 17.842 0 0 1-12.61 5.219h-19.945a17.84 17.84 0 0 1-12.61-5.22 17.81 17.81 0 0 1-5.223-12.598v-87.367c0-4.725-1.879-9.257-5.223-12.598a17.84 17.84 0 0 0-12.61-5.22H145v-65.573h211.167"/><path fill="url(#f)" d="M0 281.202c0 4.727 1.882 9.26 5.23 12.598a17.82 17.82 0 0 0 12.621 5.2c6.394-.014 13.597-.03 19.985-.042 9.823-.022 17.775-7.984 17.775-17.799V17.841C55.611 8.026 47.66.064 37.836.043L17.85 0a17.822 17.822 0 0 0-12.62 5.2A17.792 17.792 0 0 0 0 17.798v263.404" transform="translate(145 362)"/></g></g></svg>
